X: 10492
M: C|
L: 1/8
K: D
(d/c/B/A/) (G/F/E/D/) GEEG |
f |\
(d/e/f/g/) af {a}gfef | (d/e/f/g/) af dafa |
gbfa {f}edef | (d/e/f/g/) af {c}d2dA |\
dAFA GEEG | DdEd FdAd |\
fdec dBcA | BABc d2d |]


